X: 1
T: My Mind Will Never Be Easy
R: slip jig
M: 9/8
L: 1/8
K:Bmin
dc|:BAF FEF D2E|F2A ABF Adc|BAF FEF D2E|1 F2B BcA Bdc:|2 F2B BcA B2B||
|:ABc ~d3 cBA|F2A ABF A2F|ABd edB AFE|1 F2B BcA B2B:|2 F2B BcA B||

|:ABc ~d3 cBA|F2A ABF A2F|ABc dfe dBA|1 F2B BcA B2B:|2 F2B BcA B||

